!!!OTL: HERBEI IHR LEUTEL KOMMT ZU HAUF
!!!ARE: Europa, Mitteleuropa, Deutschland, Hildburghausen
!!!SCT: E1721
!!!YEM: Copyright 1995, estate of Helmut Schaffrath.
**kern
*ICvox
*Ivox
*M2/4
*k[b-]
*F:
{8c
=1
8.f
16f
8a
8g
=2
8cc
8cc
8cc}
{8cc
=3
8ff
8cc
8a
8f
=4
8cc
16cc
16cc
8cc}
{8cc
=5
8g
8g
8g
8a
=6
8b-
8cc
8dd}
{8dd
=7
8cc
8b-
8b-
8g
=8
8f
8a
8a}
==
!!!AGN: Scherz - Lied, Guckkasten - Lied
!!!ONB: ESAC (Essen Associative Code) Database: ERK3
!!!AMT: simple duple
!!!AIN: vox
!!!EED: Helmut Schaffrath
!!!EEV: 1.0
*-
